img/company/tece.svg

<svg width="92" height="48" viewBox="0 0 92 48" fill="none" xmlns="http://www.w3.org/2000/svg">
<path fill-rule="evenodd" clip-rule="evenodd" d="M16.7339 0.250985H0.439169C0.377532 0.250602 0.316514 0.263319 0.26013 0.288299C0.203747 0.313278 0.153277 0.349954 0.112043 0.395912C0.0708098 0.44187 0.0397476 0.496067 0.0209018 0.554936C0.0020559 0.613804 -0.00414626 0.67601 0.00270358 0.737456V3.89952C0.00270358 4.01564 0.0486882 4.127 0.130541 4.20911C0.212395 4.29122 0.323411 4.33734 0.439169 4.33734H5.91924V24.6232C5.91924 24.7393 5.96522 24.8507 6.04708 24.9328C6.12893 25.0149 6.23995 25.061 6.3557 25.061H10.9143C11.0301 25.061 11.1411 25.0149 11.223 24.9328C11.3048 24.8507 11.3508 24.7393 11.3508 24.6232V4.2887H16.8309C16.9466 4.2887 17.0577 4.24257 17.1395 4.16046C17.2214 4.07835 17.2673 3.96699 17.2673 3.85087V0.737456C17.2552 0.604127 17.1937 0.480203 17.0949 0.390143C16.9962 0.300083 16.8674 0.250431 16.7339 0.250985Z" fill="#24242E"/>
<path fill-rule="evenodd" clip-rule="evenodd" d="M36.7143 0.250985H20.4196C20.358 0.250602 20.297 0.263319 20.2406 0.288299C20.1842 0.313278 20.1337 0.349954 20.0925 0.395912C20.0513 0.44187 20.0202 0.496067 20.0014 0.554936C19.9825 0.613804 19.9763 0.67601 19.9832 0.737456V24.5746C19.9832 24.6907 20.0292 24.802 20.111 24.8841C20.1929 24.9663 20.3039 25.0124 20.4196 25.0124H36.7143C36.7756 25.0193 36.8376 25.013 36.8963 24.9941C36.955 24.9752 37.009 24.9441 37.0548 24.9027C37.1006 24.8613 37.1372 24.8107 37.1621 24.7542C37.187 24.6976 37.1997 24.6364 37.1993 24.5746V21.4611C37.2071 21.3954 37.1999 21.3287 37.1783 21.2661C37.1567 21.2035 37.1212 21.1467 37.0745 21.0998C37.0278 21.053 36.9712 21.0174 36.9088 20.9957C36.8464 20.974 36.7799 20.9668 36.7143 20.9747H25.4632V14.4073H34.0471C34.1126 14.4151 34.1791 14.4079 34.2415 14.3862C34.3039 14.3646 34.3606 14.329 34.4072 14.2821C34.4539 14.2353 34.4894 14.1785 34.511 14.1159C34.5326 14.0533 34.5398 13.9866 34.532 13.9208V10.7588C34.5324 10.6969 34.5197 10.6357 34.4948 10.5792C34.4699 10.5226 34.4334 10.472 34.3875 10.4306C34.3417 10.3893 34.2877 10.3581 34.229 10.3392C34.1703 10.3203 34.1083 10.3141 34.0471 10.3209H25.4632V4.2887H36.7143C36.7756 4.29557 36.8376 4.28935 36.8963 4.27044C36.955 4.25154 37.009 4.22038 37.0548 4.17902C37.1006 4.13766 37.1372 4.08703 37.1621 4.03047C37.187 3.97391 37.1997 3.9127 37.1993 3.85087V0.737456C37.2478 0.445574 37.0053 0.250985 36.7143 0.250985Z" fill="#24242E"/>
<path fill-rule="evenodd" clip-rule="evenodd" d="M75.6567 0.250985H59.362C59.3004 0.250602 59.2394 0.263319 59.183 0.288299C59.1266 0.313278 59.0761 0.349954 59.0349 0.395912C58.9937 0.441869 58.9626 0.496067 58.9438 0.554935C58.9249 0.613804 58.9187 0.67601 58.9256 0.737456V24.5746C58.9256 24.6907 58.9715 24.802 59.0534 24.8841C59.1352 24.9662 59.2463 25.0124 59.362 25.0124H75.6567C75.7774 25.013 75.8939 24.9685 75.9836 24.8875C76.0733 24.8065 76.1296 24.695 76.1417 24.5746V21.4611C76.1417 21.3321 76.0906 21.2084 75.9997 21.1171C75.9087 21.0259 75.7854 20.9747 75.6567 20.9747H64.3571V14.4073H72.9894C73.055 14.4151 73.1215 14.4079 73.1839 14.3862C73.2463 14.3646 73.3029 14.329 73.3496 14.2821C73.3963 14.2353 73.4318 14.1784 73.4534 14.1159C73.475 14.0533 73.4822 13.9866 73.4744 13.9208V10.7588C73.4748 10.6969 73.4621 10.6357 73.4372 10.5792C73.4123 10.5226 73.3758 10.472 73.3299 10.4306C73.2841 10.3893 73.2301 10.3581 73.1714 10.3392C73.1127 10.3203 73.0507 10.3141 72.9894 10.3209H64.3571V4.2887H75.6567C75.7774 4.2893 75.8939 4.24478 75.9836 4.16382C76.0733 4.08286 76.1296 3.97129 76.1417 3.85087V0.737456C76.1902 0.445573 75.8992 0.250985 75.6567 0.250985Z" fill="#24242E"/>
<path fill-rule="evenodd" clip-rule="evenodd" d="M91.515 14.0182H81.3793C81.2636 14.0182 81.1526 14.0643 81.0707 14.1464C80.9889 14.2285 80.9429 14.3399 80.9429 14.456V24.5746C80.9429 24.6907 80.9889 24.8021 81.0707 24.8842C81.1526 24.9663 81.2636 25.0124 81.3793 25.0124H91.515C91.6308 25.0124 91.7418 24.9663 91.8237 24.8842C91.9055 24.8021 91.9515 24.6907 91.9515 24.5746V14.5047C91.9521 14.3836 91.9077 14.2667 91.827 14.1768C91.7463 14.0868 91.6351 14.0303 91.515 14.0182Z" fill="#24242E"/>
<path fill-rule="evenodd" clip-rule="evenodd" d="M90.7874 10.1264H82.1066V1.41852H90.7874V10.1264ZM91.5148 0.250985H81.3791C81.3175 0.250602 81.2565 0.263319 81.2001 0.288299C81.1437 0.313278 81.0932 0.349954 81.052 0.395912C81.0108 0.44187 80.9797 0.496067 80.9608 0.554936C80.942 0.613804 80.9358 0.67601 80.9426 0.737456V10.8074C80.9358 10.8689 80.942 10.9311 80.9608 10.9899C80.9797 11.0488 81.0108 11.103 81.052 11.149C81.0932 11.1949 81.1437 11.2316 81.2001 11.2566C81.2565 11.2816 81.3175 11.2943 81.3791 11.2939H91.5148C91.5765 11.2943 91.6375 11.2816 91.6939 11.2566C91.7502 11.2316 91.8007 11.1949 91.8419 11.149C91.8832 11.103 91.9142 11.0488 91.9331 10.9899C91.9519 10.9311 91.9581 10.8689 91.9513 10.8074V0.737456C91.9581 0.67601 91.9519 0.613804 91.9331 0.554936C91.9142 0.496067 91.8832 0.44187 91.8419 0.395912C91.8007 0.349954 91.7502 0.313278 91.6939 0.288299C91.6375 0.263319 91.5765 0.250602 91.5148 0.250985Z" fill="#24242E"/>
<path fill-rule="evenodd" clip-rule="evenodd" d="M46.2197 4.87257C47.181 4.3267 48.2674 4.04166 49.372 4.04557C51.3023 4.07213 53.2166 4.40039 55.046 5.01851C55.1673 5.03756 55.2914 5.01409 55.3974 4.95206C55.5034 4.89003 55.5849 4.79323 55.628 4.67798L56.113 1.95374C56.1427 1.87086 56.1549 1.78265 56.1487 1.69477C56.1426 1.60689 56.1181 1.52128 56.077 1.44342C56.0359 1.36556 55.9791 1.29717 55.9101 1.24264C55.8411 1.1881 55.7616 1.14863 55.6765 1.12674C53.6404 0.448307 51.5165 0.0713791 49.372 0.00785332C47.9524 -0.0369781 46.5332 0.110288 45.1528 0.445678C42.0491 1.22403 40.1092 3.55909 39.3818 7.20763C39.0812 9.00793 38.9352 10.8308 38.9453 12.6561C38.9394 14.4652 39.0854 16.2715 39.3818 18.0559C40.1092 21.7045 42.0491 24.0395 45.1528 24.8179C46.5332 25.1533 47.9524 25.3006 49.372 25.2557C51.5138 25.2045 53.6371 24.8441 55.6765 24.1855C55.7633 24.158 55.8438 24.1134 55.9131 24.0541C55.9824 23.9948 56.0391 23.9222 56.0798 23.8405C56.1205 23.7588 56.1444 23.6697 56.1501 23.5785C56.1558 23.4874 56.1432 23.396 56.113 23.3098L55.531 20.6829C55.4825 20.391 55.24 20.2937 54.9491 20.3424C53.1343 20.9525 51.2372 21.2806 49.3235 21.3153C48.2008 21.3424 47.0927 21.056 46.1227 20.4883C44.9588 19.7586 44.4739 18.5911 44.1344 17.0344C43.9082 15.6023 43.7947 14.1547 43.7949 12.7048C43.7842 11.3209 43.8815 9.93836 44.0859 8.56975C44.3769 6.91575 45.0558 5.65092 46.2197 4.87257Z" fill="#24242E"/>
<path fill-rule="evenodd" clip-rule="evenodd" d="M5.62852 35.0338C3.88266 35.0338 2.71875 35.4716 2.71875 37.5148V39.9472C2.71875 42.039 3.88266 42.4282 5.62852 42.4282C6.55454 42.413 7.47831 42.3318 8.39281 42.1849V43.2552C7.44785 43.4191 6.49051 43.5005 5.53153 43.4984C2.18529 43.4984 1.50635 41.9903 1.50635 39.9472V37.758C1.50635 35.5689 1.99131 34.0122 5.72552 34.0122C6.69544 34.0122 7.71386 34.2068 8.39281 34.2554V35.3743C7.49127 35.1344 6.56115 35.0198 5.62852 35.0338Z" fill="#24242E"/>
<path d="M11.9331 30.5095H10.7207V43.2648H11.9331V30.5095Z" fill="#24242E"/>
<path fill-rule="evenodd" clip-rule="evenodd" d="M18.2861 35.0337C16.3462 35.0337 15.3763 35.6174 15.3763 37.5633V39.8498C15.3763 41.8929 16.5402 42.3794 18.2861 42.3794C20.0319 42.3794 21.2443 41.7956 21.2443 39.8498V37.5633C21.2443 35.5688 20.1774 35.0337 18.2861 35.0337ZM18.2861 43.4496C15.0368 43.4496 14.0669 41.8929 14.0669 39.8498V37.5633C14.0669 35.5688 14.8428 33.9148 18.2861 33.9148C21.7293 33.9148 22.5052 35.5688 22.5052 37.5633V39.8498C22.5052 41.8929 21.6323 43.4496 18.2861 43.4496Z" fill="#24242E"/>
<path fill-rule="evenodd" clip-rule="evenodd" d="M24.1538 41.8929C25.0274 42.1993 25.9443 42.3635 26.8696 42.3794C28.373 42.3794 29.3914 42.1848 29.3914 41.0173C29.3914 39.8497 28.8094 39.8984 28.082 39.5092L26.2391 38.5849C24.9297 38.0012 24.3963 37.4174 24.3963 36.1526C24.3963 34.8877 25.5117 33.9148 28.082 33.9148C28.817 33.9433 29.5476 34.041 30.2643 34.2067V35.2769C29.5496 35.106 28.8167 35.0243 28.082 35.0337C26.4331 35.0337 25.7057 35.4229 25.7057 36.2499C25.7057 37.0769 26.0937 37.2228 26.7241 37.5633L28.7609 38.5363C29.9734 39.12 30.7008 39.8497 30.7008 41.0659C30.7008 42.2821 29.3429 43.4983 26.9181 43.4983C25.9946 43.5087 25.0761 43.3607 24.2023 43.0605V41.8929H24.1538Z" fill="#24242E"/>
<path fill-rule="evenodd" clip-rule="evenodd" d="M38.9454 38.0012V37.4174C38.9454 35.6174 38.024 35.0337 36.4721 35.0337C34.9202 35.0337 33.7563 35.6661 33.6108 38.0012H38.9454ZM33.6108 38.9255C33.6108 41.601 34.3868 42.3794 36.9086 42.3794C37.7366 42.3748 38.5632 42.3098 39.3819 42.1848V43.2064C38.5648 43.3501 37.738 43.4315 36.9086 43.4496C33.2229 43.4496 32.3984 41.9902 32.3984 38.7309C32.3984 34.6932 33.9503 33.9148 36.5206 33.9148C39.0909 33.9148 40.1578 34.6931 40.1578 37.5633C40.1578 37.9525 40.1578 38.3903 40.1093 38.9255H33.6108Z" fill="#24242E"/>
<path fill-rule="evenodd" clip-rule="evenodd" d="M50.0512 43.401H48.8873C45.832 43.401 45.929 41.0173 45.929 40.4336V35.0824H44.4741V34.0608H45.929L46.22 31.4338H47.1899V34.0608H49.9542V35.0824H47.1899V40.7254C47.1899 41.5038 47.3839 42.3794 49.0813 42.3794C49.4075 42.3933 49.7341 42.3606 50.0512 42.2822V43.401Z" fill="#24242E"/>
<path fill-rule="evenodd" clip-rule="evenodd" d="M55.6279 35.0337C53.688 35.0337 52.6696 35.6174 52.6696 37.5633V39.8498C52.6696 41.8929 53.882 42.3794 55.6279 42.3794C57.3737 42.3794 58.5376 41.7956 58.5376 39.8498V37.5633C58.5376 35.5688 57.4707 35.0337 55.6279 35.0337ZM55.6279 43.4496C52.3786 43.4496 51.4087 41.8929 51.4087 39.8498V37.5633C51.4087 35.5688 52.1846 33.9148 55.6279 33.9148C59.0711 33.9148 59.847 35.5688 59.847 37.5633V39.8498C59.75 41.8929 58.8771 43.4496 55.6279 43.4496Z" fill="#24242E"/>
<path fill-rule="evenodd" clip-rule="evenodd" d="M64.3574 45.9794C66.6852 45.8335 67.6067 45.347 68.2856 43.6443L64.5029 34.1095H65.9093L68.9161 42.1849L71.9228 34.1095H73.3292L69.886 43.0119C68.9161 45.7362 68.4796 46.9037 64.4544 47.1469V45.9794H64.3574Z" fill="#24242E"/>
<path fill-rule="evenodd" clip-rule="evenodd" d="M78.1303 35.0337C76.1905 35.0337 75.2205 35.6174 75.2205 37.5633V39.8498C75.2205 41.8929 76.3844 42.3794 78.1303 42.3794C79.8762 42.3794 81.0401 41.7956 81.0401 39.8498V37.5633C81.0401 35.5688 80.0217 35.0337 78.1303 35.0337ZM78.1303 43.4496C74.8811 43.4496 73.9111 41.8929 73.9111 39.8498V37.5633C73.9111 35.5688 74.6871 33.9148 78.1303 33.9148C81.5735 33.9148 82.3495 35.5688 82.3495 37.5633V39.8498C82.301 41.8929 81.428 43.4496 78.1303 43.4496Z" fill="#24242E"/>
<path fill-rule="evenodd" clip-rule="evenodd" d="M85.5985 34.1095V39.8499C85.5985 41.6985 85.9864 42.3795 88.1688 42.3795C89.0541 42.3559 89.9334 42.2253 90.7876 41.9903V34.1095H92V43.3038H91.127L90.9816 42.9633C90.0765 43.2838 89.128 43.4643 88.1688 43.4984C85.356 43.4984 84.4346 42.7687 84.4346 39.9472V34.1095H85.5985Z" fill="#24242E"/>
</svg>

<svg width="92" height="48" fill="none" xmlns="http://www.w3.org/2000/svg"><path fill-rule="evenodd" clip-rule="evenodd" d="M16.734.251H.439a.435.435 0 0 0-.436.486V3.9a.439.439 0 0 0 .436.437h5.48v20.286a.439.439 0 0 0 .437.438h4.558a.436.436 0 0 0 .437-.438V4.29h5.48a.436.436 0 0 0 .436-.438V.737a.535.535 0 0 0-.533-.486zM36.714.251H20.42a.435.435 0 0 0-.437.486v23.838a.439.439 0 0 0 .437.437h16.294a.435.435 0 0 0 .485-.437V21.46a.44.44 0 0 0-.485-.486h-11.25v-6.568h8.583a.435.435 0 0 0 .485-.486v-3.162a.438.438 0 0 0-.485-.438h-8.584V4.289h11.251a.435.435 0 0 0 .485-.438V.737c.049-.291-.194-.486-.485-.486zM75.657.251H59.362a.435.435 0 0 0-.436.486v23.838a.438.438 0 0 0 .436.437h16.295a.484.484 0 0 0 .485-.437V21.46a.488.488 0 0 0-.485-.486h-11.3v-6.568h8.632a.436.436 0 0 0 .485-.486v-3.162a.438.438 0 0 0-.485-.438h-8.632V4.289h11.3a.484.484 0 0 0 .485-.438V.737c.048-.291-.243-.486-.485-.486zM91.515 14.018H81.379a.436.436 0 0 0-.436.438v10.119a.439.439 0 0 0 .436.437h10.136a.436.436 0 0 0 .436-.437v-10.07a.487.487 0 0 0-.436-.487zM90.787 10.126h-8.68V1.42h8.68v8.707zm.728-9.875H81.379a.435.435 0 0 0-.436.486v10.07a.44.44 0 0 0 .257.45.435.435 0 0 0 .18.037h10.135a.435.435 0 0 0 .436-.487V.737a.44.44 0 0 0-.257-.449.435.435 0 0 0-.18-.037zM46.22 4.873a6.338 6.338 0 0 1 3.152-.827c1.93.026 3.845.354 5.674.973a.532.532 0 0 0 .582-.341l.485-2.724a.635.635 0 0 0-.437-.827 22.004 22.004 0 0 0-6.304-1.12 15.763 15.763 0 0 0-4.22.439c-3.103.778-5.043 3.113-5.77 6.762-.3 1.8-.447 3.623-.437 5.448a32.31 32.31 0 0 0 .437 5.4c.727 3.648 2.667 5.983 5.77 6.762 1.381.335 2.8.483 4.22.438a22.244 22.244 0 0 0 6.304-1.07.68.68 0 0 0 .437-.876l-.582-2.627c-.048-.292-.291-.39-.582-.34-1.815.61-3.712.938-5.625.972a6.048 6.048 0 0 1-3.201-.827c-1.164-.73-1.65-1.897-1.989-3.454a27.726 27.726 0 0 1-.34-4.33c-.01-1.383.088-2.766.292-4.134.29-1.654.97-2.92 2.134-3.697zM5.629 35.034c-1.746 0-2.91.438-2.91 2.48v2.433c0 2.092 1.164 2.481 2.91 2.481a19.44 19.44 0 0 0 2.764-.243v1.07a16.53 16.53 0 0 1-2.861.243c-3.347 0-4.026-1.508-4.026-3.55v-2.19c0-2.19.485-3.746 4.22-3.746.97 0 1.988.195 2.667.243v1.12a10.157 10.157 0 0 0-2.764-.341z" fill="#24242E"/><path d="M11.933 30.51h-1.212v12.755h1.212V30.509z" fill="#24242E"/><path fill-rule="evenodd" clip-rule="evenodd" d="M18.286 35.034c-1.94 0-2.91.583-2.91 2.53v2.286c0 2.043 1.164 2.53 2.91 2.53 1.746 0 2.958-.584 2.958-2.53v-2.287c0-1.994-1.067-2.53-2.958-2.53zm0 8.416c-3.25 0-4.22-1.557-4.22-3.6v-2.287c0-1.994.777-3.648 4.22-3.648 3.443 0 4.22 1.654 4.22 3.648v2.287c0 2.043-.874 3.6-4.22 3.6zM24.154 41.893c.873.306 1.79.47 2.716.486 1.503 0 2.521-.194 2.521-1.362 0-1.167-.582-1.119-1.309-1.508l-1.843-.924c-1.31-.584-1.843-1.168-1.843-2.432 0-1.265 1.116-2.238 3.686-2.238a11.7 11.7 0 0 1 2.182.292v1.07a8.894 8.894 0 0 0-2.182-.243c-1.649 0-2.376.389-2.376 1.216s.388.973 1.018 1.313l2.037.973c1.212.584 1.94 1.314 1.94 2.53 0 1.216-1.358 2.432-3.783 2.432a8.078 8.078 0 0 1-2.716-.438v-1.167h-.048zM38.945 38.001v-.584c0-1.8-.921-2.383-2.473-2.383-1.552 0-2.716.632-2.861 2.967h5.334zm-5.334.925c0 2.675.776 3.453 3.298 3.453.828-.004 1.654-.07 2.473-.194v1.021c-.817.144-1.644.225-2.473.244-3.686 0-4.51-1.46-4.51-4.72 0-4.037 1.551-4.815 4.122-4.815 2.57 0 3.637.778 3.637 3.648 0 .39 0 .827-.049 1.362h-6.498zM50.051 43.401h-1.164c-3.055 0-2.958-2.384-2.958-2.967v-5.352h-1.455v-1.021h1.455l.291-2.627h.97v2.627h2.764v1.021H47.19v5.643c0 .779.194 1.654 1.891 1.654.326.014.653-.018.97-.097v1.119zM55.628 35.034c-1.94 0-2.958.583-2.958 2.53v2.286c0 2.043 1.212 2.53 2.958 2.53 1.746 0 2.91-.584 2.91-2.53v-2.287c0-1.994-1.067-2.53-2.91-2.53zm0 8.416c-3.25 0-4.22-1.557-4.22-3.6v-2.287c0-1.994.777-3.648 4.22-3.648 3.443 0 4.219 1.654 4.219 3.648v2.287c-.097 2.043-.97 3.6-4.22 3.6zM64.357 45.98c2.328-.146 3.25-.633 3.929-2.336l-3.783-9.535h1.406l3.007 8.076 3.007-8.076h1.406l-3.443 8.903c-.97 2.724-1.406 3.892-5.432 4.135v-1.168h-.097zM78.13 35.034c-1.94 0-2.91.583-2.91 2.53v2.286c0 2.043 1.164 2.53 2.91 2.53 1.746 0 2.91-.584 2.91-2.53v-2.287c0-1.994-1.018-2.53-2.91-2.53zm0 8.416c-3.249 0-4.219-1.557-4.219-3.6v-2.287c0-1.994.776-3.648 4.22-3.648 3.442 0 4.219 1.654 4.219 3.648v2.287c-.049 2.043-.922 3.6-4.22 3.6zM85.599 34.11v5.74c0 1.849.387 2.53 2.57 2.53a10.975 10.975 0 0 0 2.619-.39v-7.88H92v9.194h-.873l-.145-.34a9.43 9.43 0 0 1-2.813.534c-2.813 0-3.734-.73-3.734-3.55v-5.839h1.163z" fill="#24242E"/></svg>
